src/svg/dropbox.svg

<svg height="1000" width="1031.3" xmlns="http://www.w3.org/2000/svg">
    <path d="m516.4 227.1l-257.8 164.7 257.8 164.6-257.8 164.7-258.6-166.2 258.4-164.7-258.4-163.1 258.4-164.6z m-259.4 545.8l257.8-164.7 257.9 164.7-257.9 164.6z m259.4-218l257.8-164.7-257.8-163.2 256.5-164.5 258.4 164.6-258.4 164.7 258.4 164.5-258.4 164.6z" />
  </svg>

<svg height="1000" width="1031.3" xmlns="http://www.w3.org/2000/svg"><path d="M516.4 227.1L258.6 391.8l257.8 164.6L258.6 721.1 0 554.9 258.4 390.2 0 227.1 258.4 62.5l258 164.6zM257 772.9L514.8 608.2l257.9 164.7L514.8 937.5 257 772.9zm259.4 -218L774.2 390.2 516.4 227 772.9 62.5l258.4 164.6L772.9 391.8l258.4 164.5L772.9 720.9l-256.5 -166z"/></svg>
